v/0.4.11/design-resources/icons/wf_icons/find.svg

<?xml version="1.0" encoding="utf-8"?>
<!-- Generated by IcoMoon.io -->
<!DOCTYPE svg PUBLIC "-//W3C//DTD SVG 1.1//EN" "http://www.w3.org/Graphics/SVG/1.1/DTD/svg11.dtd">
<svg version="1.1" xmlns="http://www.w3.org/2000/svg" xmlns:xlink="http://www.w3.org/1999/xlink" width="512" height="512" viewBox="0 0 512 512">
<g>
</g>
	<path d="M191.986 192h48.014v-61.064h-32v-19.696h16v-47.254h-112v47.254h22.383c2.887-4.006-73.806 156.87-80.752 288.76h-21.631v48.014h160v-112.014h48v-64h-48.014v-80zM457.386 400c-6.931-131.853-83.669-292.803-80.735-288.76h23.349v-47.254h-112v47.254h21.175v19.695h-37.175v61.065h48v80h-48v64h48.037l-0.037 112.014h160v-48.014h-22.614zM207.865 208.731h94.521v47.269h-94.521z" fill="#595959" />
</svg>

<svg xmlns="http://www.w3.org/2000/svg" width="512" height="512" viewBox="0 0 512 512"><path stroke="#449FDB" d="M0 0"/><path d="M191.986 192H240v-61.064h-32V111.24h16V63.986H112v47.254h22.383C137.27 107.234 60.577 268.11 53.63 400H32v48.014h160V336h48v-64h-48.014v-80zm265.4 208c-6.93-131.853-83.67-292.803-80.735-288.76H400V63.986H288v47.254h21.175v19.695H272V192h48v80h-48v64h48.037L320 448.014h160V400h-22.614zm-249.52-191.27h94.52V256h-94.52z" fill="#595959"/></svg>
